X:1
T:Aspérges
T:Claudio Casciolini (1697–1760)
T:Arranged 2016 Rev. Anthony Cekada
T:Asperges Me
C:C
%%score [ 1 ( 2 3 ) ] { ( 4 7 ) | ( 5 6 ) } 8
L:1/8
Q:1/4=100
M:12/8
K:F
V:1 treble nm="Soprano" snm="S"
V:2 treble nm="Alto" snm="A"
V:3 treble 
V:4 treble nm="Organ" snm="Org."
V:7 treble 
V:5 bass 
V:6 bass 
V:8 bass nm="MusicXML Part"
V:1
"^Andante" z12 |:!f! c3 c c2 A2 | d4 G2 G2 | A2 F2 B4 | A2 c4 B2- | B2 A4 GF | E2 F4 E2 | F4 F4 | %8
w: |Dó- mi- ne, hys-|só- po, et|mun- * dá-|bor, et mun-||dá- * *|bor. La-|
 G4 AG F2- | F2 E2 FGAF | B4 A4 | G4 F4 | z4 F4 | G4 A2 F2 | F2 E2 F2 A2 | G4 F4!fine! ||!p! A16 | %17
w: vá- bis _ me,|_ et su- * * *|* per|ni- vem|su-|per ni- vem|de- ál- ba- *|* bor.|Miserére mei,|
 c2 F2 G4 | B16 | d2 cB A4 || A16 | B2 A2 G4 | F16 | G4 A4 |!f! c16 | f2 e2 d4 | e8 | c16 | %28
w: De- * us|secúndum magnam misericórdiam|tu- * * am.|Glória Patri, et|Fí- li- o,|et Spirítui|San- cto.|Sicut erat in princípio | et|nunc et sem-|per,|et in sàecula sàeculorum.|
 d2 BA G4 | A6 c2 | f3 e d4 | e8 :| %32
w: A- * * *|men. A-|spér- * ges|me.|
V:2
 z12 |:!f! x8 | x8 | x8 | x8 | x8 | x8 | x8 | x8 | x8 | x8 | x8 | x8 | x8 | x8 | x8 ||!p! x16 | %17
 x8 | x16 | x8 || x16 | x8 | x16 | x8 |!f! x16 | x8 | x8 | x16 | x8 | x8 | x8 | x8 :| %32
V:3
 x12 |: F3 F G2 F2 | F4 E2 E2 | F6 E2 | F2 z2 F4 | F3 E D4 | C8 | C4 z4 | z4 F4 | G4 AG F2- | %10
w: |Dó- mi- ne, hys-|só- po, et|mun- dá-|bor, et|mun- * dá-||bor.|La-|vá- bis _ me,|
 F2 E2 FGAF | B4 A4 | G4 F4 | z4 F4 | G4 A2 F2- | F2 E2 F4 || F16 | C2 D2 E4 | D16 | F2 G2 F4 || %20
w: _ et su- * * *|* per|ni- vem|de-|ál- ba- *|* * bor.|Miserére mei,|De- * us|secúndum magnam misericórdiam|tu- * am.|
 F16 | F2 F2 E4 | D16 | D4 ^C4 | F16 | F2 G2 G4 | G8 | F16 | F2 DF F2 E2 | F6 G2 | A4 =B4 | G8 :| %32
w: Glória Patri, et|Fí- li- o,|et Spirítui|San- cto.|Sicut erat in princípio | et|nunc et sem-|per,|et in sàecula sàeculorum.|A- * * * *|men. A-|sper- ges|me.|
V:4
 z12 |:!f! c3 c c2 A2 | d4 G2 G2 | A2 F2 B4 | A2 c4 B2- | B2 A4 GF | E2 F4 E2 | F4 F4 | G4 AG F2- | %9
 G4 FGAF | B4 AG A2 | B4 A4 | G4 F4 | G4 A2 F2 | G4 A2 A2 | G4 F4 || A16 | c2 F2 G4 | B16 | %19
 d2 cB A4 || A16 | B2 A2 G4 | F16 | G4 A4 | c16 | f2 e2 d4 | e8 | c16 | d2 BA G4 | A6 c2 | %30
 f3 e d4 | e8 :| %32
V:5
 x12 |: A,3 A, G,2 C2 | C2 =B,2 C2 C2 | C2 D2 B,4 | C2 A,2 D4 | C4 B,4- | B,2 A,2 G,4 | A,4 z4 | %8
 z8 | z4 F,4 | G,4 CB,CA, | G,4 C4 | B,4 A,4 | B,4 C4 | B,3 B, A,2 C2 | C8 ||!p! C16 | C4 C4 | %18
 D16 | A,2 C2 C4 || D16 | D2 C2 C4 | A,16 | G,4 A,4 |!f! A,16 | A,2 C2 C=B,/A,/ B,2 | C8 | A,16 | %28
 A,2 B,C D2 C2 | C6 C2 | D4 D4 | C8 :| %32
V:6
 C,D, F,E,D, E, F, G,4 z |: F,3 F, E,2 F,2 | D,4 C,2 C2 | A,2 B,2 G,4 | F,2 F,2 B,,C,D,E, | %5
w: A- * spér- * * ges me. _|_ _ _ _||||
 F,4 B,,4 | C,8 | F,4 z4 | x8 | x8 | z4 F,4- | F,2 E,2 A,G,A,F,- | F,2 E,2 F,G,A,F, | G,4 F,4 | %14
w: |||||||||
 G,3 G, F,2 F,2 | C,4 F,4 || F,16 | E,2 D,2 C,4 | G,16 | D,2 E,2 F,4 || D,16 | B,,2 F,2 C,4 | %22
w: ||||||||
 D,16 | B,,4 A,,4 | F,16 | D,2 C,2 G,4 | C,8 | F,16 | D,2 G,A, B,2 C2 | F,6 E,2 | D,4 G,4 | C,8 :| %32
w: ||||||||||
V:7
 x12 |: F3 F G2 F2 | F4 E2 E2 | F6 E2 | F2 z2 F4 | F3 E D4 | C8 | C4 z4 | G4 AG F2 | F2 E2 FG F2- | %10
 F2 E2 FGAF | G4 F4 | G4 F4 | G4 F2 F2- | F2 E2 F2 F2- | F2 E2 F4 || F16 | C2 D2 E4 | D16 | %19
 F2 G2 F4 || F16 | F2 F2 E4 | D16 | D4 ^C4 | F16 | F2 G2 G4 | G8 | F16 | F2 DF F2 E2 | F6 G2 | %30
 A4 =B4 | G8 :| %32
V:8
 z12 |:[M:4/4]!f! z8 | z8 | z8 | z8 | z8 | z8 | z8 | z8 | z8 | z8 | z8 | z8 | z8 | z8 | z8 || %16
[M:8/4]!p! z16 |[M:4/4] z8 |[M:8/4]!mf! z16 |[M:4/4] z8 ||[M:8/4]!p! z16 |[M:4/4] z8 |[M:8/4] z16 | %23
[M:4/4] z8 |[M:8/4]!f! z16 |[M:4/4] z8 | z8 |[M:8/4] z16 |[M:4/4] z8 | z8 | z8 | z8 :| %32

